X:282
T: ICH GING MAL BEI DER NACHT
N: E0157B
O: Europa, Mitteleuropa, Deutschland, Ober - Lahnkreis, Dillkreis
R: erzaehlendes Volks - Lied, Scherz, Schwank
M: 2/4
L: 1/16
K: G
D2 | G2F2E2D2 | B4
d4 | c2B2A2G2 | A6
A2 | A2A2A2d2 | A2FED2z2
G2B2A2c2 | B3cd2
dc | B2B2A2A2 | G4z2

